client/public/static/images/use-case-aml.svg

<svg fill="none" height="64" viewBox="0 0 57 64" width="57" xmlns="http://www.w3.org/2000/svg"><path d="m21.2316 31.1026-19.36215 4.986c-.11895.0307-.24278.0376-.3644.0203-.12162-.0172-.23867-.0582-.34444-.1206-.10578-.0625-.198213-.1452-.272036-.2434-.073823-.0981-.127586-.2099-.158218-.3288-.030633-.119-.037533-.2428-.020311-.3644.017222-.1217.05823-.2387.120683-.3445.062454-.1058.145132-.1982.243312-.272s.20993-.1276.32889-.1582l19.36217-4.986c.1189-.0307.2428-.0376.3644-.0203.1216.0172.2387.0582.3444.1206.1058.0625.1983.1452.2721.2433.0738.0982.1276.21.1582.3289.0306.119.0375.2428.0203.3644-.0172.1217-.0582.2387-.1207.3445-.0624.1058-.1451.1982-.2433.272s-.2099.1276-.3289.1582z" fill="#a0aec0"/><path d="m25.7554 33.1976-23.09872 5.9482c-.24024.0619-.49521.0258-.70884-.1003-.21362-.1262-.36838-.332-.43025-.5722-.06186-.2403-.02576-.4953.10037-.7089.12614-.2136.33196-.3684.5722-.4302l23.09874-5.9482c.2401-.0616.4949-.0254.7084.1008.2134.1261.368.3319.4299.572.0618.2401.0258.4949-.1002.7084-.126.2136-.3315.3684-.5716.4304z" fill="#a0aec0"/><path d="m50.0319 62.8085h-43.91488c-1.48921-.0017-2.91694-.594-3.96997-1.647-1.05304-1.0531-1.645368-2.4808-1.64705-3.97v-51.57448c.001682-1.48921.59401-2.91694 1.64705-3.96997 1.05303-1.053036 2.48076-1.64536779 3.96997-1.64705h40.85568l8.6762 6.91556v50.27594c-.0016 1.4892-.594 2.9169-1.647 3.97-1.053 1.053-2.4808 1.6453-3.97 1.647z" fill="#a0aec0"/><path d="m6.42951 2c-1.04181.00118-2.04062.41893-2.77729 1.16158-.73667.74266-1.15105 1.74958-1.15222 2.79985v51.07717c.00117 1.0502.41555 2.0572 1.15222 2.7998.73667.7427 1.73548 1.1604 2.77729 1.1616h43.14099c1.0418-.0012 2.0406-.4189 2.7773-1.1616.7366-.7426 1.151-1.7496 1.1522-2.7998v-49.01966l-7.4905-6.01894z" fill="#fff"/><path d="m41.0715 16.5586h-19.9938c-.2481 0-.486-.0986-.6615-.274-.1754-.1754-.2739-.4133-.2739-.6614s.0985-.486.2739-.6614c.1755-.1754.4134-.274.6615-.274h19.9938c.2481 0 .486.0986.6614.274s.274.4133.274.6614-.0986.486-.274.6614-.4133.274-.6614.274z" fill="#6059f7"/><path d="m44.9297 19.7156h-23.8523c-.2478-.0004-.4854-.0991-.6606-.2745-.1751-.1753-.2735-.4131-.2735-.6609 0-.2479.0984-.4856.2735-.661.1752-.1754.4128-.2741.6606-.2744h23.8523c.123-.0002.2447.0239.3584.0708.1136.047.2169.1158.3039.2027s.156.1901.2031.3036c.047.1136.0713.2353.0713.3583 0 .1229-.0243.2446-.0713.3582-.0471.1136-.1161.2168-.2031.3036-.087.0869-.1903.1558-.3039.2027-.1137.047-.2354.071-.3584.0709z" fill="#6059f7"/><g fill="#a0aec0"><path d="m41.0715 28.835h-19.9932c-.2481 0-.486.0985-.6614.2739s-.274.4133-.274.6614c0 .248.0986.4859.274.6614.1754.1754.4133.2739.6614.2739h19.9932c.248 0 .4859-.0985.6613-.2739.1754-.1755.274-.4134.274-.6614 0-.2481-.0986-.486-.274-.6614s-.4133-.2739-.6613-.2739z"/><path d="m44.9302 31.9924h-23.8519c-.2481 0-.486.0986-.6614.274s-.274.4133-.274.6614c0 .248.0986.4859.274.6613s.4133.274.6614.274h23.8519c.248 0 .4859-.0986.6613-.274s.274-.4133.274-.6613c0-.2481-.0986-.486-.274-.6614s-.4133-.274-.6613-.274z"/><path d="m41.0715 44.854h-19.9938c-.2481 0-.486-.0986-.6615-.274-.1754-.1754-.2739-.4133-.2739-.6614s.0985-.486.2739-.6614c.1755-.1754.4134-.274.6615-.274h19.9938c.2481 0 .486.0986.6614.274s.274.4133.274.6614-.0986.486-.274.6614-.4133.274-.6614.274z"/><path d="m44.9297 48.0109h-23.8523c-.2478-.0003-.4854-.099-.6606-.2744-.1751-.1754-.2735-.4131-.2735-.661 0-.2478.0984-.4856.2735-.6609.1752-.1754.4128-.2741.6606-.2745h23.8523c.123-.0001.2447.0239.3584.0709.1136.0469.2169.1158.3039.2027.087.0868.156.19.2031.3036.047.1135.0713.2353.0713.3582 0 .123-.0243.2447-.0713.3583-.0471.1135-.1161.2167-.2031.3036s-.1903.1557-.3039.2027c-.1137.0469-.2354.071-.3584.0708z"/></g><path d="m12.7516 20.5078c1.8259 0 3.306-1.4802 3.306-3.3061s-1.4801-3.3061-3.306-3.3061-3.3061 1.4802-3.3061 3.3061 1.4802 3.3061 3.3061 3.3061z" fill="#6059f7"/><path d="m12.424 18.4628c-.0744.0002-.1468-.0239-.2063-.0685l-.0037-.0028-.777-.5943c-.0361-.0276-.0664-.062-.0892-.1013-.0228-.0392-.0376-.0826-.0436-.1276s-.003-.0908.0087-.1346c.0117-.0439.0319-.0851.0596-.1211.0276-.036.0621-.0662.1014-.0889s.0827-.0375.1277-.0434c.0451-.0059.0908-.0028.1347.009.0438.0118.0849.0321.1209.0598l.5032.3859 1.1892-1.5514c.0276-.036.062-.0662.1012-.0889.0393-.0226.0826-.0374.1276-.0433.0449-.0059.0905-.003.1343.0087.0438.0118.0849.032.1208.0596h.0001l-.0073.0103.0075-.0103c.0726.0558.1201.1381.132.2288.012.0908-.0125.1825-.0681.2552l-1.3988 1.8241c-.0324.042-.074.076-.1216.0994-.0476.0233-.1.0354-.153.0352z" fill="#fff"/><path d="m16.3973 31.349c.0002.4342-.0852.8642-.2512 1.2654-.1661.4012-.4095.7658-.7165 1.0729-.3069.3072-.6714.5508-1.0725.717-.4011.1663-.8311.2519-1.2653.2519-.0284.0006-.0568-.0005-.0851-.0034-.6501-.0166-1.2808-.2247-1.8132-.598s-.9429-.8954-1.1801-1.5008c-.23722-.6055-.2906-1.2675-.15347-1.9031.13713-.6357.45867-1.2168.92447-1.6706.4657-.4538 1.0549-.7602 1.6939-.8808s1.2994-.0501 1.8985.2028c.5991.2528 1.1103.6767 1.4697 1.2186s.551 1.1778.5508 1.8281z" fill="#a0aec0"/><path d="m12.7516 48.8031c1.8259 0 3.306-1.4802 3.306-3.3061 0-1.8258-1.4801-3.306-3.306-3.306s-3.3061 1.4802-3.3061 3.306c0 1.8259 1.4802 3.3061 3.3061 3.3061z" fill="#a0aec0"/><path d="m55.0608 7.08324h-6.7964c-.4962 0-.972-.19709-1.3228-.54793-.3509-.35084-.548-.82668-.548-1.32284v-5.019742c0-.021977.0062-.043508.0179-.062126s.0284-.0335673.0481-.0431348c.0198-.0095674.0419-.0133654.0638-.0109577.0218.0024077.0425.0109231.0597.0245695l8.5503 6.773591c.019.01507.0329.03569.0397.059.0068.02332.0061.04816-.0019.07109-.0079.02292-.0229.0428-.0426.05687-.0198.01406-.0435.02161-.0678.02161z" fill="#a0aec0"/><path d="m16.3974 31.349c.0001.4342-.0853.8642-.2513 1.2655-.166.4012-.4095.7658-.7164 1.0729-.307.3071-.6714.5507-1.0726.717-.4011.1662-.8311.2518-1.2653.2519-.0284.0005-.0568-.0006-.0851-.0034-.4271-1.0653.1968-2.1616.3084-3.3039.1117-1.1423.559-1.8866 1.1844-2.849.7691.1318.6157.1207 1.1187.7172s.779 1.3516.7792 2.1318z" fill="#6059f7"/><path d="m20.142 29.7711c.0004-.2481.0992-.486.2747-.6614.1754-.1755.4133-.2743.6614-.2747h7.9223c.291.5918.8833 1.2215 1 1.8706h-8.9223c-.2479-.0001-.4858-.0985-.6613-.2737-.1755-.1751-.2743-.4128-.2748-.6608z" fill="#6059f7"/><path d="m31.0004 31.9924c.0003.6318.1652 1.2609 0 1.8707h-9.9221c-.2481 0-.486-.0986-.6614-.274s-.274-.4133-.274-.6613c0-.2481.0986-.486.274-.6614s.4133-.274.6614-.274z" fill="#6059f7"/><path d="m47.3073 49.3692c-.1818.298-.4747.5116-.8142.5938s-.6977.0262-.9959-.1555l-15.366-9.3675c-.1477-.09-.2761-.2082-.3781-.3479-.1019-.1396-.1754-.2979-.2161-.4659s-.0479-.3424-.0212-.5132c.0267-.1707.0868-.3346.1768-.4822.0901-.1475.2084-.2759.3481-.3778s.2981-.1753.4662-.216.3426-.0479.5134-.0212c.1709.0267.3349.0867.4825.1767l15.366 9.3675c.2982.1818.5119.4746.5942.8138.0822.3393.0262.6973-.1557.9954z" fill="#2d3748"/><path d="m31.9681 39.9677c-1.0816 1.7729-2.6648 3.1854-4.5493 4.0587-1.8846.8733-3.9858 1.1683-6.0381.8477-2.0522-.3206-3.9632-1.2425-5.4914-2.649s-2.605-3.2345-3.094-5.2528c-.4891-2.0184-.3686-4.1363.3463-6.0862.7149-1.9498 1.9921-3.6439 3.67-4.868s3.6812-1.9233 5.7566-2.0091 4.1296.4455 5.9029 1.527c2.3754 1.4523 4.0777 3.7873 4.7333 6.4929.6556 2.7055.211 5.5606-1.2363 7.9388zm-15.6903-9.5685c-.8113 1.3297-1.2099 2.87-1.1455 4.4262s.5889 3.0584 1.5071 4.3166c.9183 1.2581 2.1892 2.2158 3.6518 2.7519 1.4627.536 3.0515.6264 4.5656.2597 1.514-.3667 2.8853-1.1741 3.9404-2.32s1.7467-2.5789 1.9872-4.1178c.2405-1.5388.0192-3.1144-.6359-4.5275s-1.7147-2.6003-3.0446-3.4113c-1.7841-1.0852-3.9258-1.4186-5.9554-.927s-3.7813 1.768-4.8707 3.5492z" fill="#2d3748"/></svg>

<svg width="57" height="64" viewBox="0 0 57 64" fill="none" xmlns="http://www.w3.org/2000/svg">
<path d="M21.2316 31.1026L1.86945 36.0886C1.7505 36.1193 1.62667 36.1262 1.50505 36.1089C1.38343 36.0917 1.26638 36.0507 1.16061 35.9883C1.05483 35.9258 0.962397 35.8431 0.888574 35.7449C0.814751 35.6468 0.760988 35.535 0.730356 35.4161C0.699723 35.2971 0.692823 35.1733 0.710045 35.0517C0.727267 34.93 0.768275 34.813 0.830728 34.7072C0.893182 34.6014 0.97586 34.509 1.07404 34.4352C1.17222 34.3614 1.28397 34.3076 1.40293 34.277L20.7651 29.291C20.884 29.2603 21.0079 29.2534 21.1295 29.2707C21.2511 29.2879 21.3682 29.3289 21.4739 29.3913C21.5797 29.4538 21.6722 29.5365 21.746 29.6346C21.8198 29.7328 21.8736 29.8446 21.9042 29.9635C21.9348 30.0825 21.9417 30.2063 21.9245 30.3279C21.9073 30.4496 21.8663 30.5666 21.8038 30.6724C21.7414 30.7782 21.6587 30.8706 21.5605 30.9444C21.4623 31.0182 21.3506 31.072 21.2316 31.1026Z" fill="#A0AEC0"/>
<path d="M25.7554 33.1976L2.65668 39.1458C2.41644 39.2077 2.16147 39.1716 1.94784 39.0455C1.73422 38.9193 1.57946 38.7135 1.51759 38.4733C1.45573 38.233 1.49183 37.978 1.61796 37.7644C1.7441 37.5508 1.94992 37.396 2.19016 37.3342L25.2889 31.386C25.529 31.3244 25.7838 31.3606 25.9973 31.4868C26.2107 31.6129 26.3653 31.8187 26.4272 32.0588C26.489 32.2989 26.453 32.5537 26.327 32.7672C26.201 32.9808 25.9955 33.1356 25.7554 33.1976Z" fill="#A0AEC0"/>
<path d="M50.0319 62.8085H6.11702C4.62781 62.8068 3.20008 62.2145 2.14705 61.1615C1.09401 60.1084 0.501682 58.6807 0.5 57.1915V5.61702C0.501682 4.12781 1.09401 2.70008 2.14705 1.64705C3.20008 0.594014 4.62781 0.00168221 6.11702 0H46.9727L55.6489 6.91556V57.1915C55.6473 58.6807 55.0549 60.1084 54.0019 61.1615C52.9489 62.2145 51.5211 62.8068 50.0319 62.8085Z" fill="#A0AEC0"/>
<path d="M6.42951 2C5.3877 2.00118 4.38889 2.41893 3.65222 3.16158C2.91555 3.90424 2.50117 4.91116 2.5 5.96143V57.0386C2.50117 58.0888 2.91555 59.0958 3.65222 59.8384C4.38889 60.5811 5.3877 60.9988 6.42951 61H49.5705C50.6123 60.9988 51.6111 60.5811 52.3478 59.8384C53.0844 59.0958 53.4988 58.0888 53.5 57.0386V8.01894L46.0095 2H6.42951Z" fill="white"/>
<path d="M41.0715 16.5586H21.0777C20.8296 16.5586 20.5917 16.46 20.4162 16.2846C20.2408 16.1092 20.1423 15.8713 20.1423 15.6232C20.1423 15.3751 20.2408 15.1372 20.4162 14.9618C20.5917 14.7864 20.8296 14.6878 21.0777 14.6878H41.0715C41.3196 14.6878 41.5575 14.7864 41.7329 14.9618C41.9083 15.1372 42.0069 15.3751 42.0069 15.6232C42.0069 15.8713 41.9083 16.1092 41.7329 16.2846C41.5575 16.46 41.3196 16.5586 41.0715 16.5586Z" fill="#6059F7"/>
<path d="M44.9297 19.7156H21.0774C20.8296 19.7152 20.592 19.6165 20.4168 19.4411C20.2417 19.2658 20.1433 19.028 20.1433 18.7802C20.1433 18.5323 20.2417 18.2946 20.4168 18.1192C20.592 17.9438 20.8296 17.8451 21.0774 17.8448H44.9297C45.0527 17.8446 45.1744 17.8687 45.2881 17.9156C45.4017 17.9626 45.505 18.0314 45.592 18.1183C45.679 18.2052 45.748 18.3084 45.7951 18.4219C45.8421 18.5355 45.8664 18.6572 45.8664 18.7802C45.8664 18.9031 45.8421 19.0248 45.7951 19.1384C45.748 19.252 45.679 19.3552 45.592 19.442C45.505 19.5289 45.4017 19.5978 45.2881 19.6447C45.1744 19.6917 45.0527 19.7157 44.9297 19.7156Z" fill="#6059F7"/>
<path d="M41.0715 28.835H21.0783C20.8302 28.835 20.5923 28.9335 20.4169 29.1089C20.2415 29.2843 20.1429 29.5222 20.1429 29.7703C20.1429 30.0183 20.2415 30.2562 20.4169 30.4317C20.5923 30.6071 20.8302 30.7056 21.0783 30.7056H41.0715C41.3195 30.7056 41.5574 30.6071 41.7328 30.4317C41.9082 30.2562 42.0068 30.0183 42.0068 29.7703C42.0068 29.5222 41.9082 29.2843 41.7328 29.1089C41.5574 28.9335 41.3195 28.835 41.0715 28.835Z" fill="#A0AEC0"/>
<path d="M44.9302 31.9924H21.0783C20.8302 31.9924 20.5923 32.091 20.4169 32.2664C20.2415 32.4418 20.1429 32.6797 20.1429 32.9278C20.1429 33.1758 20.2415 33.4137 20.4169 33.5891C20.5923 33.7645 20.8302 33.8631 21.0783 33.8631H44.9302C45.1782 33.8631 45.4161 33.7645 45.5915 33.5891C45.7669 33.4137 45.8655 33.1758 45.8655 32.9278C45.8655 32.6797 45.7669 32.4418 45.5915 32.2664C45.4161 32.091 45.1782 31.9924 44.9302 31.9924Z" fill="#A0AEC0"/>
<path d="M41.0715 44.854H21.0777C20.8296 44.854 20.5917 44.7554 20.4162 44.58C20.2408 44.4046 20.1423 44.1667 20.1423 43.9186C20.1423 43.6705 20.2408 43.4326 20.4162 43.2572C20.5917 43.0818 20.8296 42.9832 21.0777 42.9832H41.0715C41.3196 42.9832 41.5575 43.0818 41.7329 43.2572C41.9083 43.4326 42.0069 43.6705 42.0069 43.9186C42.0069 44.1667 41.9083 44.4046 41.7329 44.58C41.5575 44.7554 41.3196 44.854 41.0715 44.854Z" fill="#A0AEC0"/>
<path d="M44.9297 48.0109H21.0774C20.8296 48.0106 20.592 47.9119 20.4168 47.7365C20.2417 47.5611 20.1433 47.3234 20.1433 47.0755C20.1433 46.8277 20.2417 46.5899 20.4168 46.4146C20.592 46.2392 20.8296 46.1405 21.0774 46.1401H44.9297C45.0527 46.14 45.1744 46.164 45.2881 46.211C45.4017 46.2579 45.505 46.3268 45.592 46.4137C45.679 46.5005 45.748 46.6037 45.7951 46.7173C45.8421 46.8308 45.8664 46.9526 45.8664 47.0755C45.8664 47.1985 45.8421 47.3202 45.7951 47.4338C45.748 47.5473 45.679 47.6505 45.592 47.7374C45.505 47.8243 45.4017 47.8931 45.2881 47.9401C45.1744 47.987 45.0527 48.0111 44.9297 48.0109Z" fill="#A0AEC0"/>
<path d="M12.7516 20.5078C14.5775 20.5078 16.0576 19.0276 16.0576 17.2017C16.0576 15.3758 14.5775 13.8956 12.7516 13.8956C10.9257 13.8956 9.4455 15.3758 9.4455 17.2017C9.4455 19.0276 10.9257 20.5078 12.7516 20.5078Z" fill="#6059F7"/>
<path d="M12.424 18.4628C12.3496 18.463 12.2772 18.4389 12.2177 18.3943L12.214 18.3915L11.437 17.7972C11.4009 17.7696 11.3706 17.7352 11.3478 17.6959C11.325 17.6567 11.3102 17.6133 11.3042 17.5683C11.2982 17.5233 11.3012 17.4775 11.3129 17.4337C11.3246 17.3898 11.3448 17.3486 11.3725 17.3126C11.4001 17.2766 11.4346 17.2464 11.4739 17.2237C11.5132 17.201 11.5566 17.1862 11.6016 17.1803C11.6467 17.1744 11.6924 17.1775 11.7363 17.1893C11.7801 17.2011 11.8212 17.2214 11.8572 17.2491L12.3604 17.635L13.5496 16.0836C13.5772 16.0476 13.6116 16.0174 13.6508 15.9947C13.6901 15.9721 13.7334 15.9573 13.7784 15.9514C13.8233 15.9455 13.8689 15.9484 13.9127 15.9601C13.9565 15.9719 13.9976 15.9921 14.0335 16.0197L14.0336 16.0197L14.0263 16.03L14.0338 16.0197C14.1064 16.0755 14.1539 16.1578 14.1658 16.2485C14.1778 16.3393 14.1533 16.431 14.0977 16.5037L12.6989 18.3278C12.6665 18.3698 12.6249 18.4038 12.5773 18.4272C12.5297 18.4505 12.4773 18.4626 12.4243 18.4624L12.424 18.4628Z" fill="white"/>
<path d="M16.3973 31.349C16.3975 31.7832 16.3121 32.2132 16.1461 32.6144C15.98 33.0156 15.7366 33.3802 15.4296 33.6873C15.1227 33.9945 14.7582 34.2381 14.3571 34.4043C13.956 34.5706 13.526 34.6562 13.0918 34.6562C13.0634 34.6568 13.035 34.6557 13.0067 34.6528C12.3566 34.6362 11.7259 34.4281 11.1935 34.0548C10.6611 33.6815 10.2506 33.1594 10.0134 32.554C9.77618 31.9485 9.7228 31.2865 9.85993 30.6509C9.99706 30.0152 10.3186 29.4341 10.7844 28.9803C11.2501 28.5265 11.8393 28.2201 12.4783 28.0995C13.1173 27.9789 13.7777 28.0494 14.3768 28.3023C14.9759 28.5551 15.4871 28.979 15.8465 29.5209C16.2059 30.0628 16.3975 30.6987 16.3973 31.349Z" fill="#A0AEC0"/>
<path d="M12.7516 48.8031C14.5775 48.8031 16.0576 47.3229 16.0576 45.497C16.0576 43.6712 14.5775 42.191 12.7516 42.191C10.9257 42.191 9.4455 43.6712 9.4455 45.497C9.4455 47.3229 10.9257 48.8031 12.7516 48.8031Z" fill="#A0AEC0"/>
<path d="M55.0608 7.08324H48.2644C47.7682 7.08324 47.2924 6.88615 46.9416 6.53531C46.5907 6.18447 46.3936 5.70863 46.3936 5.21247V0.192728C46.3936 0.170751 46.3998 0.14922 46.4115 0.130602C46.4232 0.111984 46.4399 0.0970347 46.4596 0.0874672C46.4794 0.0778998 46.5015 0.0741018 46.5234 0.0765095C46.5452 0.0789172 46.5659 0.0874326 46.5831 0.101079L55.1334 6.87467C55.1524 6.88974 55.1663 6.91036 55.1731 6.93367C55.1799 6.95699 55.1792 6.98183 55.1712 7.00476C55.1633 7.02768 55.1483 7.04756 55.1286 7.06163C55.1088 7.07569 55.0851 7.08324 55.0608 7.08324Z" fill="#A0AEC0"/>
<path d="M16.3974 31.349C16.3975 31.7832 16.3121 32.2132 16.1461 32.6145C15.9801 33.0157 15.7366 33.3803 15.4297 33.6874C15.1227 33.9945 14.7583 34.2381 14.3571 34.4044C13.956 34.5706 13.526 34.6562 13.0918 34.6563C13.0634 34.6568 13.035 34.6557 13.0067 34.6529C12.5796 33.5876 13.2035 32.4913 13.3151 31.349C13.4268 30.2067 13.8741 29.4624 14.4995 28.5C15.2686 28.6318 15.1152 28.6207 15.6182 29.2172C16.1212 29.8137 16.3972 30.5688 16.3974 31.349Z" fill="#6059F7"/>
<path d="M20.142 29.7711C20.1424 29.523 20.2412 29.2851 20.4167 29.1097C20.5921 28.9342 20.83 28.8354 21.0781 28.835H29.0004C29.2914 29.4268 29.8837 30.0565 30.0004 30.7056H21.0781C20.8302 30.7055 20.5923 30.6071 20.4168 30.4319C20.2413 30.2568 20.1425 30.0191 20.142 29.7711Z" fill="#6059F7"/>
<path d="M31.0004 31.9924C31.0007 32.6242 31.1656 33.2533 31.0004 33.8631H21.0783C20.8302 33.8631 20.5923 33.7645 20.4169 33.5891C20.2415 33.4137 20.1429 33.1758 20.1429 32.9278C20.1429 32.6797 20.2415 32.4418 20.4169 32.2664C20.5923 32.091 20.8302 31.9924 21.0783 31.9924H31.0004Z" fill="#6059F7"/>
<path d="M47.3073 49.3692C47.1255 49.6672 46.8326 49.8808 46.4931 49.963C46.1536 50.0452 45.7954 49.9892 45.4972 49.8075L30.1312 40.44C29.9835 40.35 29.8551 40.2318 29.7531 40.0921C29.6512 39.9525 29.5777 39.7942 29.537 39.6262C29.4963 39.4582 29.4891 39.2838 29.5158 39.113C29.5425 38.9423 29.6026 38.7784 29.6926 38.6308C29.7827 38.4833 29.901 38.3549 30.0407 38.253C30.1804 38.1511 30.3388 38.0777 30.5069 38.037C30.675 37.9963 30.8495 37.9891 31.0203 38.0158C31.1912 38.0425 31.3552 38.1025 31.5028 38.1925L46.8688 47.56C47.167 47.7418 47.3807 48.0346 47.463 48.3738C47.5452 48.7131 47.4892 49.0711 47.3073 49.3692Z" fill="#2D3748"/>
<path d="M31.9681 39.9677C30.8865 41.7406 29.3033 43.1531 27.4188 44.0264C25.5342 44.8997 23.433 45.1947 21.3807 44.8741C19.3285 44.5535 17.4175 43.6316 15.8893 42.2251C14.3611 40.8186 13.2843 38.9906 12.7953 36.9723C12.3062 34.9539 12.4267 32.836 13.1416 30.8861C13.8565 28.9363 15.1337 27.2422 16.8116 26.0181C18.4895 24.794 20.4928 24.0948 22.5682 24.009C24.6436 23.9232 26.6978 24.4545 28.4711 25.536C30.8465 26.9883 32.5488 29.3233 33.2044 32.0289C33.86 34.7344 33.4154 37.5895 31.9681 39.9677ZM16.2778 30.3992C15.4665 31.7289 15.0679 33.2692 15.1323 34.8254C15.1967 36.3816 15.7212 37.8838 16.6394 39.142C17.5577 40.4001 18.8286 41.3578 20.2912 41.8939C21.7539 42.4299 23.3427 42.5203 24.8568 42.1536C26.3708 41.7869 27.7421 40.9795 28.7972 39.8336C29.8523 38.6877 30.5439 37.2547 30.7844 35.7158C31.0249 34.177 30.8036 32.6014 30.1485 31.1883C29.4934 29.7752 28.4338 28.588 27.1039 27.777C25.3198 26.6918 23.1781 26.3584 21.1485 26.85C19.1189 27.3416 17.3672 28.618 16.2778 30.3992Z" fill="#2D3748"/>
</svg>
